X: 1
T: Flood's
R: hornpipe
M: 4/4
L: 1/8
K: Gmaj
|:dc|BG PG2 DG PG2|BGBd cBAG|Ad^cd Adcd|Ad^cd fed=c|
BG PG2 DG PG2|BGBd cBAG|Fgfe dcBA|G2 B2 G2:|GF||
E2 EF GAGF|E2 e2 B2 BA|GBAG FAGF|EGFE F2 B,2|
E2 EF GAGF|E2 e2 B2 BA|GBAG FAGF|E2 E2 E2 B,D||
E2 EF GAGF|E2 e2 B2 BA|GBAG FAGF|EGFE F2 B,2|
E2 EF GAGF|E2 e2 B2 BA|GBAG FAGF|E2 E2 D2||

